;FLAVOR:UltiGCode
;TIME:26822
;MATERIAL:56335
;MATERIAL2:0
;NOZZLE_DIAMETER:0.4
;Generated with Cura_SteamEngine 2.5.0

;LAYER_COUNT:70
;LAYER:0
M107
G0 F4320 X5.638 Y33.895 Z0.27
;TYPE:WALL-INNER
G1 F1800 X104.588 Y33.895 E9.35077
G1 X104.588 Y132.844 E18.70146
G1 X5.638 Y132.844 E28.05223
G1 X5.638 Y33.895 E37.40291
G0 F4320 X5.313 Y33.57
;TYPE:WALL-OUTER
G1 F1800 X104.913 Y33.57 E46.81511
G1 X104.913 Y133.169 E56.22722
G1 X5.313 Y133.169 E65.63942
G1 X5.313 Y33.57 E75.05152
G0 F4320 X5.513 Y33.57
G0 X5.839 Y34.052
;TYPE:SKIN
G1 F1800 X104.429 Y132.643 E88.22747
G1 X104.49 Y132.704
G0 F4320 X103.976 Y132.685
G1 F1800 X5.796 Y34.504 E101.34862
G1 X5.735 Y34.443
G0 F4320 X5.796 Y34.999
G1 F1800 X103.481 Y132.685 E114.40363
G1 X103.542 Y132.746
G0 F4320 X102.986 Y132.685
G1 F1800 X5.796 Y35.494 E127.39247
G1 X5.735 Y35.433
G0 F4320 X5.796 Y35.989
G1 F1800 X102.491 Y132.685 E140.31517
G1 X102.552 Y132.746
G0 F4320 X101.996 Y132.685
G1 F1800 X5.796 Y36.484 E153.17171
G1 X5.735 Y36.423
G0 F4320 X5.796 Y36.979
G1 F1800 X101.501 Y132.685 E165.9621
G1 X101.562 Y132.746
G0 F4320 X101.006 Y132.685
G1 F1800 X5.796 Y37.474 E178.68633
G1 X5.735 Y37.413
G0 F4320 X5.796 Y37.969
G1 F1800 X100.511 Y132.685 E191.34441
G1 X100.572 Y132.746
G0 F4320 X100.016 Y132.685
G1 F1800 X5.796 Y38.464 E203.93634
G1 X5.735 Y38.403
G0 F4320 X5.796 Y38.959
G1 F1800 X99.521 Y132.685 E216.46211
G1 X99.582 Y132.746
G0 F4320 X99.026 Y132.685
G1 F1800 X5.796 Y39.454 E228.92173
G1 X5.735 Y39.393
G0 F4320 X5.796 Y39.949
G1 F1800 X98.531 Y132.685 E241.3152
G1 X98.592 Y132.746
G0 F4320 X98.036 Y132.685
G1 F1800 X5.796 Y40.444 E253.64251
G1 X5.735 Y40.383
G0 F4320 X5.796 Y40.939
G1 F1800 X97.541 Y132.685 E265.90367
G1 X97.602 Y132.746
G0 F4320 X97.046 Y132.685
G1 F1800 X5.796 Y41.434 E278.09868
G1 X5.735 Y41.373
G0 F4320 X5.796 Y41.929
G1 F1800 X96.551 Y132.685 E290.22754
G1 X96.612 Y132.746
G0 F4320 X96.056 Y132.685
G1 F1800 X5.796 Y42.424 E302.29024
G1 X5.735 Y42.363
G0 F4320 X5.796 Y42.919
G1 F1800 X95.561 Y132.685 E314.28678
G1 X95.622 Y132.746
G0 F4320 X95.066 Y132.685
G1 F1800 X5.796 Y43.414 E326.21718
G1 X5.735 Y43.353
G0 F4320 X5.796 Y43.909
G1 F1800 X94.571 Y132.685 E338.08142
G1 X94.632 Y132.746
G0 F4320 X94.077 Y132.685
G1 F1800 X5.796 Y44.404 E349.87957
G1 X5.735 Y44.343
G0 F4320 X5.796 Y44.899
G1 F1800 X93.582 Y132.685 E361.61157
G1 X93.643 Y132.746
G0 F4320 X93.087 Y132.685
G1 F1800 X5.796 Y45.394 E373.27742
G1 X5.735 Y45.333
G0 F4320 X5.796 Y45.889
G1 F1800 X92.592 Y132.685 E384.87711
G1 X92.653 Y132.746
G0 F4320 X92.097 Y132.685
G1 F1800 X5.796 Y46.384 E396.41065
G1 X5.735 Y46.323
G0 F4320 X5.796 Y46.879
G1 F1800 X91.602 Y132.685 E407.87804
G1 X91.663 Y132.746
G0 F4320 X91.107 Y132.685
G1 F1800 X5.796 Y47.374 E419.27927
G1 X5.735 Y47.313
G0 F4320 X5.796 Y47.869
G1 F1800 X90.612 Y132.685 E430.61435
G1 X90.673 Y132.746
G0 F4320 X90.117 Y132.685
G1 F1800 X5.796 Y48.363 E441.88335
G1 X5.735 Y48.302
G0 F4320 X5.796 Y48.858
G1 F1800 X89.622 Y132.685 E453.08619
G1 X89.683 Y132.746
G0 F4320 X89.127 Y132.685
G1 F1800 X5.796 Y49.353 E464.22287
G1 X5.735 Y49.292
G0 F4320 X5.796 Y49.848
G1 F1800 X88.632 Y132.685 E475.29341
G1 X88.693 Y132.746
G0 F4320 X88.137 Y132.685
G1 F1800 X5.796 Y50.343 E486.29779
G1 X5.735 Y50.282
G0 F4320 X5.796 Y50.838
G1 F1800 X87.642 Y132.685 E497.23601
G1 X87.703 Y132.746
G0 F4320 X87.147 Y132.685
G1 F1800 X5.796 Y51.333 E508.10809
G1 X5.735 Y51.272
G0 F4320 X5.796 Y51.828
G1 F1800 X86.652 Y132.685 E518.91401
G1 X86.713 Y132.746
G0 F4320 X86.157 Y132.685
G1 F1800 X5.796 Y52.323 E529.65377
G1 X5.735 Y52.262
G0 F4320 X5.796 Y52.818
G1 F1800 X85.662 Y132.685 E540.32739
G1 X85.723 Y132.746
G0 F4320 X85.167 Y132.685
G1 F1800 X5.796 Y53.313 E550.93485
G1 X5.735 Y53.252
G0 F4320 X5.796 Y53.808
G1 F1800 X84.672 Y132.685 E561.47615
G1 X84.733 Y132.746
G0 F4320 X84.177 Y132.685
G1 F1800 X5.796 Y54.303 E571.9513
G1 X5.735 Y54.242
G0 F4320 X5.796 Y54.798
G1 F1800 X83.682 Y132.685 E582.3603
G1 X83.743 Y132.746
G0 F4320 X83.187 Y132.685
G1 F1800 X5.796 Y55.293 E592.70315
G1 X5.735 Y55.232
G0 F4320 X5.796 Y55.788
G1 F1800 X82.692 Y132.685 E602.97984
G1 X82.753 Y132.746
G0 F4320 X82.197 Y132.685
G1 F1800 X5.796 Y56.283 E613.19038
G1 X5.735 Y56.222
G0 F4320 X5.796 Y56.778
G1 F1800 X81.702 Y132.685 E623.33477
G1 X81.763 Y132.746
G0 F4320 X81.207 Y132.685
G1 F1800 X5.796 Y57.273 E633.413
G1 X5.735 Y57.212
G0 F4320 X5.796 Y57.768
G1 F1800 X80.712 Y132.685 E643.42508
G1 X80.773 Y132.746
G0 F4320 X80.217 Y132.685
G1 F1800 X5.796 Y58.263 E653.37101
G1 X5.735 Y58.202
G0 F4320 X5.796 Y58.758
G1 F1800 X79.722 Y132.685 E663.25078
G1 X79.783 Y132.746
G0 F4320 X79.227 Y132.685
G1 F1800 X5.796 Y59.253 E673.0644
G1 X5.735 Y59.192
G0 F4320 X5.796 Y59.748
G1 F1800 X78.732 Y132.685 E682.81187
G1 X78.793 Y132.746
G0 F4320 X78.237 Y132.685
G1 F1800 X5.796 Y60.243 E692.49318
G1 X5.735 Y60.182
G0 F4320 X5.796 Y60.738
G1 F1800 X77.742 Y132.685 E702.10834
G1 X77.803 Y132.746
G0 F4320 X77.247 Y132.685
G1 F1800 X5.796 Y61.233 E711.65734
G1 X5.735 Y61.172
G0 F4320 X5.796 Y61.728
G1 F1800 X76.752 Y132.685 E721.1402
G1 X76.813 Y132.746
G0 F4320 X76.257 Y132.685
G1 F1800 X5.796 Y62.223 E730.55689
G1 X5.735 Y62.162
G0 F4320 X5.796 Y62.718
G1 F1800 X75.762 Y132.685 E739.90744
G1 X75.823 Y132.746
G0 F4320 X75.267 Y132.685
G1 F1800 X5.796 Y63.213 E749.19183
G1 X5.735 Y63.152
G0 F4320 X5.796 Y63.708
G1 F1800 X74.773 Y132.685 E758.41014
G1 X74.834 Y132.746
G0 F4320 X74.278 Y132.685
G1 F1800 X5.796 Y64.203 E767.56229
G1 X5.735 Y64.142
G0 F4320 X5.796 Y64.698
G1 F1800 X73.783 Y132.685 E776.64829
G1 X73.844 Y132.746
G0 F4320 X73.288 Y132.685
G1 F1800 X5.796 Y65.193 E785.66814
G1 X5.735 Y65.132
G0 F4320 X5.796 Y65.688
G1 F1800 X72.793 Y132.685 E794.62183
G1 X72.854 Y132.746
G0 F4320 X72.298 Y132.685
G1 F1800 X5.796 Y66.183 E803.50937
G1 X5.735 Y66.122
G0 F4320 X5.796 Y66.678
G1 F1800 X71.803 Y132.685 E812.33075
G1 X71.864 Y132.746
G0 F4320 X71.308 Y132.685
G1 F1800 X5.796 Y67.173 E821.08598
G1 X5.735 Y67.112
G0 F4320 X5.796 Y67.667
G1 F1800 X70.813 Y132.685 E829.77513
G1 X70.874 Y132.746
G0 F4320 X70.318 Y132.685
G1 F1800 X5.796 Y68.162 E838.39812
G1 X5.735 Y68.101
G0 F4320 X5.796 Y68.657
G1 F1800 X69.823 Y132.685 E846.95496
G1 X69.884 Y132.746
G0 F4320 X69.328 Y132.685
G1 F1800 X5.796 Y69.152 E855.44565
G1 X5.735 Y69.091
G0 F4320 X5.796 Y69.647
G1 F1800 X68.833 Y132.685 E863.87018
G1 X68.894 Y132.746
G0 F4320 X68.338 Y132.685
G1 F1800 X5.796 Y70.142 E872.22856
G1 X5.735 Y70.081
G0 F4320 X5.796 Y70.637
G1 F1800 X67.843 Y132.685 E880.52078
G1 X67.904 Y132.746
G0 F4320 X67.348 Y132.685
G1 F1800 X5.796 Y71.132 E888.74685
G1 X5.735 Y71.071
G0 F4320 X5.796 Y71.627
G1 F1800 X66.853 Y132.685 E896.90677
G1 X66.914 Y132.746
G0 F4320 X66.358 Y132.685
G1 F1800 X5.796 Y72.122 E905.00054
G1 X5.735 Y72.061
G0 F4320 X5.796 Y72.617
G1 F1800 X65.863 Y132.685 E913.02815
G1 X65.924 Y132.746
G0 F4320 X65.368 Y132.685
G1 F1800 X5.796 Y73.112 E920.98961
G1 X5.735 Y73.051
G0 F4320 X5.796 Y73.607
G1 F1800 X64.873 Y132.685 E928.88491
G1 X64.934 Y132.746
G0 F4320 X64.378 Y132.685
G1 F1800 X5.796 Y74.102 E936.71406
G1 X5.735 Y74.041
G0 F4320 X5.796 Y74.597
G1 F1800 X63.883 Y132.685 E944.47706
G1 X63.944 Y132.746
G0 F4320 X63.388 Y132.685
G1 F1800 X5.796 Y75.092 E952.17391
G1 X5.735 Y75.031
G0 F4320 X5.796 Y75.587
G1 F1800 X62.893 Y132.685 E959.8046
G1 X62.954 Y132.746
G0 F4320 X62.398 Y132.685
G1 F1800 X5.796 Y76.082 E967.36914
G1 X5.735 Y76.021
G0 F4320 X5.796 Y76.577
G1 F1800 X61.903 Y132.685 E974.86752
G1 X61.964 Y132.746
G0 F4320 X61.408 Y132.685
G1 F1800 X5.796 Y77.072 E982.29975
G1 X5.735 Y77.011
G0 F4320 X5.796 Y77.567
G1 F1800 X60.913 Y132.685 E989.66583
G1 X60.974 Y132.746
G0 F4320 X60.418 Y132.685
G1 F1800 X5.796 Y78.062 E996.96576
G1 X5.735 Y78.001
G0 F4320 X5.796 Y78.557
G1 F1800 X59.923 Y132.685 E1004.19953
G1 X59.984 Y132.746
G0 F4320 X59.428 Y132.685
G1 F1800 X5.796 Y79.052 E1011.36715
G1 X5.735 Y78.991
G0 F4320 X5.796 Y79.547
G1 F1800 X58.933 Y132.685 E1018.46861
G1 X58.994 Y132.746
G0 F4320 X58.438 Y132.685
G1 F1800 X5.796 Y80.042 E1025.50392
G1 X5.735 Y79.981
G0 F4320 X5.796 Y80.537
G1 F1800 X57.943 Y132.685 E1032.47308
G1 X58.004 Y132.746
G0 F4320 X57.448 Y132.685
G1 F1800 X5.796 Y81.032 E1039.37608
G1 X5.735 Y80.971
G0 F4320 X5.796 Y81.527
G1 F1800 X56.953 Y132.685 E1046.21294
G1 X57.014 Y132.746
G0 F4320 X56.458 Y132.685
G1 F1800 X5.796 Y82.022 E1052.98363
G1 X5.735 Y81.961
G0 F4320 X5.796 Y82.517
G1 F1800 X55.963 Y132.685 E1059.68818
G1 X56.024 Y132.746
G0 F4320 X55.468 Y132.685
G1 F1800 X5.796 Y83.012 E1066.32657
G1 X5.735 Y82.951
G0 F4320 X5.796 Y83.507
G1 F1800 X54.974 Y132.685 E1072.89887
G1 X55.035 Y132.746
G0 F4320 X54.479 Y132.685
G1 F1800 X5.796 Y84.002 E1079.40502
G1 X5.735 Y83.941
G0 F4320 X5.796 Y84.497
G1 F1800 X53.984 Y132.685 E1085.84502
G1 X54.045 Y132.746
G0 F4320 X53.489 Y132.685
G1 F1800 X5.796 Y84.992 E1092.21887
G1 X5.735 Y84.931
G0 F4320 X5.796 Y85.487
G1 F1800 X52.994 Y132.685 E1098.52656
G1 X53.055 Y132.746
G0 F4320 X52.499 Y132.685
G1 F1800 X5.796 Y85.982 E1104.76809
G1 X5.735 Y85.921
G0 F4320 X5.796 Y86.477
G1 F1800 X52.004 Y132.685 E1110.94348
G1 X52.065 Y132.746
G0 F4320 X51.509 Y132.685
G1 F1800 X5.796 Y86.972 E1117.05271
G1 X5.735 Y86.911
G0 F4320 X5.796 Y87.466
G1 F1800 X51.014 Y132.685 E1123.09585
G1 X51.075 Y132.746
G0 F4320 X50.519 Y132.685
G1 F1800 X5.796 Y87.961 E1129.07284
G1 X5.735 Y87.9
G0 F4320 X5.796 Y88.456
G1 F1800 X50.024 Y132.685 E1134.98368
G1 X50.085 Y132.746
G0 F4320 X49.529 Y132.685
G1 F1800 X5.796 Y88.951 E1140.82837
G1 X5.735 Y88.89
G0 F4320 X5.796 Y89.446
G1 F1800 X49.034 Y132.685 E1146.6069
G1 X49.095 Y132.746
G0 F4320 X48.539 Y132.685
G1 F1800 X5.796 Y89.941 E1152.31927
G1 X5.735 Y89.88
G0 F4320 X5.796 Y90.436
G1 F1800 X48.044 Y132.685 E1157.9655
G1 X48.105 Y132.746
G0 F4320 X47.549 Y132.685
G1 F1800 X5.796 Y90.931 E1163.54557
G1 X5.735 Y90.87
G0 F4320 X5.796 Y91.426
G1 F1800 X47.054 Y132.685 E1169.05948
G1 X47.115 Y132.746
G0 F4320 X46.559 Y132.685
G1 F1800 X5.796 Y91.921 E1174.50725
G1 X5.735 Y91.86
G0 F4320 X5.796 Y92.416
G1 F1800 X46.064 Y132.685 E1179.88886
G1 X46.125 Y132.746
G0 F4320 X45.569 Y132.685
G1 F1800 X5.796 Y92.911 E1185.20432
G1 X5.735 Y92.85
G0 F4320 X5.796 Y93.406
G1 F1800 X45.074 Y132.685 E1190.45362
G1 X45.135 Y132.746
G0 F4320 X44.579 Y132.685
G1 F1800 X5.796 Y93.901 E1195.63677
G1 X5.735 Y93.84
G0 F4320 X5.796 Y94.396
G1 F1800 X44.084 Y132.685 E1200.75377
G1 X44.145 Y132.746
G0 F4320 X43.589 Y132.685
G1 F1800 X5.796 Y94.891 E1205.80461
G1 X5.735 Y94.83
G0 F4320 X5.796 Y95.386
G1 F1800 X43.094 Y132.685 E1210.7893
G1 X43.155 Y132.746
G0 F4320 X42.599 Y132.685
G1 F1800 X5.796 Y95.881 E1215.70784
G1 X5.735 Y95.82
G0 F4320 X5.796 Y96.376
G1 F1800 X42.104 Y132.685 E1220.56022
G1 X42.165 Y132.746
G0 F4320 X41.609 Y132.685
G1 F1800 X5.796 Y96.871 E1225.34645
G1 X5.735 Y96.81
G0 F4320 X5.796 Y97.366
G1 F1800 X41.114 Y132.685 E1230.06653
G1 X41.175 Y132.746
G0 F4320 X40.619 Y132.685
G1 F1800 X5.796 Y97.861 E1234.72045
G1 X5.735 Y97.8
G0 F4320 X5.796 Y98.356
G1 F1800 X40.124 Y132.685 E1239.30822
G1 X40.185 Y132.746
G0 F4320 X39.629 Y132.685
G1 F1800 X5.796 Y98.851 E1243.82984
G1 X5.735 Y98.79
G0 F4320 X5.796 Y99.346
G1 F1800 X39.134 Y132.685 E1248.2853
G1 X39.195 Y132.746
G0 F4320 X38.639 Y132.685
G1 F1800 X5.796 Y99.841 E1252.67461
G1 X5.735 Y99.78
G0 F4320 X5.796 Y100.336
G1 F1800 X38.144 Y132.685 E1256.99777
G1 X38.205 Y132.746
G0 F4320 X37.649 Y132.685
G1 F1800 X5.796 Y100.831 E1261.25477
G1 X5.735 Y100.77
G0 F4320 X5.796 Y101.326
G1 F1800 X37.154 Y132.685 E1265.44562
G1 X37.215 Y132.746
G0 F4320 X36.659 Y132.685
G1 F1800 X5.796 Y101.821 E1269.57032
G1 X5.735 Y101.76
G0 F4320 X5.796 Y102.316
G1 F1800 X36.164 Y132.685 E1273.62886
G1 X36.225 Y132.746
G0 F4320 X35.67 Y132.685
G1 F1800 X5.796 Y102.811 E1277.62132
G1 X5.735 Y102.75
G0 F4320 X5.796 Y103.306
G1 F1800 X35.175 Y132.685 E1281.54762
G1 X35.236 Y132.746
G0 F4320 X34.68 Y132.685
G1 F1800 X5.796 Y103.801 E1285.40777
G1 X5.735 Y103.74
G0 F4320 X5.796 Y104.296
G1 F1800 X34.185 Y132.685 E1289.20177
G1 X34.246 Y132.746
G0 F4320 X33.69 Y132.685
G1 F1800 X5.796 Y104.791 E1292.92961
G1 X5.735 Y104.73
G0 F4320 X5.796 Y105.286
G1 F1800 X33.195 Y132.685 E1296.5913
G1 X33.256 Y132.746
G0 F4320 X32.7 Y132.685
G1 F1800 X5.796 Y105.781 E1300.18683
G1 X5.735 Y105.72
G0 F4320 X5.796 Y106.276
G1 F1800 X32.205 Y132.685 E1303.71622
G1 X32.266 Y132.746
G0 F4320 X31.71 Y132.685
G1 F1800 X5.796 Y106.771 E1307.17945
G1 X5.735 Y106.71
G0 F4320 X5.796 Y107.265
G1 F1800 X31.215 Y132.685 E1310.57659
G1 X31.276 Y132.746
G0 F4320 X30.72 Y132.685
G1 F1800 X5.796 Y107.76 E1313.90758
G1 X5.735 Y107.699
G0 F4320 X5.796 Y108.255
G1 F1800 X30.225 Y132.685 E1317.17241
G1 X30.286 Y132.746
G0 F4320 X29.73 Y132.685
G1 F1800 X5.796 Y108.75 E1320.3711
G1 X5.735 Y108.689
G0 F4320 X5.796 Y109.245
G1 F1800 X29.235 Y132.685 E1323.50363
G1 X29.296 Y132.746
G0 F4320 X28.74 Y132.685
G1 F1800 X5.796 Y109.74 E1326.57
G1 X5.735 Y109.679
G0 F4320 X5.796 Y110.235
G1 F1800 X28.245 Y132.685 E1329.57023
G1 X28.306 Y132.746
G0 F4320 X27.75 Y132.685
G1 F1800 X5.796 Y110.73 E1332.50429
G1 X5.735 Y110.669
G0 F4320 X5.796 Y111.225
G1 F1800 X27.255 Y132.685 E1335.37221
G1 X27.316 Y132.746
G0 F4320 X26.76 Y132.685
G1 F1800 X5.796 Y111.72 E1338.17397
G1 X5.735 Y111.659
G0 F4320 X5.796 Y112.215
G1 F1800 X26.265 Y132.685 E1340.90958
G1 X26.326 Y132.746
G0 F4320 X25.77 Y132.685
G1 F1800 X5.796 Y112.71 E1343.57904
G1 X5.735 Y112.649
G0 F4320 X5.796 Y113.205
G1 F1800 X25.275 Y132.685 E1346.18234
G1 X25.336 Y132.746
G0 F4320 X24.78 Y132.685
G1 F1800 X5.796 Y113.7 E1348.71949
G1 X5.735 Y113.639
G0 F4320 X5.796 Y114.195
G1 F1800 X24.285 Y132.685 E1351.19048
G1 X24.346 Y132.746
G0 F4320 X23.79 Y132.685
G1 F1800 X5.796 Y114.69 E1353.59533
G1 X5.735 Y114.629
G0 F4320 X5.796 Y115.185
G1 F1800 X23.295 Y132.685 E1355.93402
G1 X23.356 Y132.746
G0 F4320 X22.8 Y132.685
G1 F1800 X5.796 Y115.68 E1358.20655
G1 X5.735 Y115.619
G0 F4320 X5.796 Y116.175
G1 F1800 X22.305 Y132.685 E1360.41293
G1 X22.366 Y132.746
G0 F4320 X21.81 Y132.685
G1 F1800 X5.796 Y116.67 E1362.55316
G1 X5.735 Y116.609
G0 F4320 X5.796 Y117.165
G1 F1800 X21.315 Y132.685 E1364.62724
G1 X21.376 Y132.746
G0 F4320 X20.82 Y132.685
G1 F1800 X5.796 Y117.66 E1366.63516
G1 X5.735 Y117.599
G0 F4320 X5.796 Y118.155
G1 F1800 X20.325 Y132.685 E1368.57693
G1 X20.386 Y132.746
G0 F4320 X19.83 Y132.685
G1 F1800 X5.796 Y118.65 E1370.45254
G1 X5.735 Y118.589
G0 F4320 X5.796 Y119.145
G1 F1800 X19.335 Y132.685 E1372.262
G1 X19.396 Y132.746
G0 F4320 X18.84 Y132.685
G1 F1800 X5.796 Y119.64 E1374.00531
G1 X5.735 Y119.579
G0 F4320 X5.796 Y120.135
G1 F1800 X18.345 Y132.685 E1375.68247
G1 X18.406 Y132.746
G0 F4320 X17.85 Y132.685
G1 F1800 X5.796 Y120.63 E1377.29347
G1 X5.735 Y120.569
G0 F4320 X5.796 Y121.125
G1 F1800 X17.355 Y132.685 E1378.83832
G1 X17.416 Y132.746
G0 F4320 X16.86 Y132.685
G1 F1800 X5.796 Y121.62 E1380.31701
G1 X5.735 Y121.559
G0 F4320 X5.796 Y122.115
G1 F1800 X16.365 Y132.685 E1381.72956
G1 X16.426 Y132.746
G0 F4320 X15.871 Y132.685
G1 F1800 X5.796 Y122.61 E1383.07601
G1 X5.735 Y122.549
G0 F4320 X5.796 Y123.105
G1 F1800 X15.376 Y132.685 E1384.35631
G1 X15.437 Y132.746
G0 F4320 X14.881 Y132.685
G1 F1800 X5.796 Y123.6 E1385.57046
G1 X5.735 Y123.539
G0 F4320 X5.796 Y124.095
G1 F1800 X14.386 Y132.685 E1386.71846
G1 X14.447 Y132.746
G0 F4320 X13.891 Y132.685
G1 F1800 X5.796 Y124.59 E1387.8003
G1 X5.735 Y124.529
G0 F4320 X5.796 Y125.085
G1 F1800 X13.396 Y132.685 E1388.81598
G1 X13.457 Y132.746
G0 F4320 X12.901 Y132.685
G1 F1800 X5.796 Y125.58 E1389.76552
G1 X5.735 Y125.519
G0 F4320 X5.796 Y126.075
G1 F1800 X12.406 Y132.685 E1390.6489
G1 X12.467 Y132.746
G0 F4320 X11.911 Y132.685
G1 F1800 X5.796 Y126.569 E1391.4662
G1 X5.735 Y126.508
G0 F4320 X5.796 Y127.064
G1 F1800 X11.416 Y132.685 E1392.21734
G1 X11.477 Y132.746
G0 F4320 X10.921 Y132.685
G1 F1800 X5.796 Y127.559 E1392.90233
G1 X5.735 Y127.498
G0 F4320 X5.796 Y128.054
G1 F1800 X10.426 Y132.685 E1393.52116
G1 X10.487 Y132.746
G0 F4320 X9.931 Y132.685
G1 F1800 X5.796 Y128.549 E1394.07384
G1 X5.735 Y128.488
