;FLAVOR:UltiGCode
;TIME:13830
;MATERIAL:28526
;MATERIAL2:0
;NOZZLE_DIAMETER:0.4
;Generated with Cura_SteamEngine 2.5.0

;LAYER_COUNT:50
;LAYER:0
M107
G0 F4320 X57.025 Y57.025 Z0.27
;TYPE:WALL-INNER
G1 F1800 X165.975 Y57.025 E10.29577
G1 X165.975 Y165.975 E20.59155
G1 X57.025 Y165.975 E30.88732
G1 X57.025 Y57.025 E41.1831
G0 F4320 X56.7 Y56.7
;TYPE:WALL-OUTER
G1 F1800 X166.3 Y56.7 E51.5403
G1 X166.3 Y166.3 E61.8975
G1 X56.7 Y166.3 E72.2547
G1 X56.7 Y56.7 E82.6119
G0 F4320 X56.9 Y56.7
G0 X57.182 Y57.182
;TYPE:SKIN
G1 F1800 X165.816 Y165.816 E97.13009
G1 X165.877 Y165.877
G0 F4320 X165.816 Y165.321
G1 F1800 X57.677 Y57.183 E111.58207
G1 X57.616 Y57.122
G0 F4320 X58.172 Y57.183
G1 F1800 X165.816 Y164.826 E125.96789
G1 X165.877 Y164.887
G0 F4320 X165.816 Y164.331
G1 F1800 X58.667 Y57.183 E140.28755
G1 X58.606 Y57.122
G0 F4320 X59.162 Y57.183
G1 F1800 X165.816 Y163.836 E154.54107
G1 X165.877 Y163.897
G0 F4320 X165.816 Y163.341
G1 F1800 X59.657 Y57.183 E168.72843
G1 X59.596 Y57.122
G0 F4320 X60.152 Y57.183
G1 F1800 X165.816 Y162.846 E182.84963
G1 X165.877 Y162.907
G0 F4320 X165.816 Y162.351
G1 F1800 X60.647 Y57.183 E196.90468
G1 X60.586 Y57.122
G0 F4320 X61.142 Y57.183
G1 F1800 X165.816 Y161.856 E210.89358
G1 X165.877 Y161.917
G0 F4320 X165.816 Y161.361
G1 F1800 X61.637 Y57.183 E224.81633
G1 X61.576 Y57.122
G0 F4320 X62.132 Y57.183
G1 F1800 X165.816 Y160.866 E238.67292
G1 X165.877 Y160.927
G0 F4320 X165.816 Y160.371
G1 F1800 X62.627 Y57.183 E252.46336
G1 X62.566 Y57.122
G0 F4320 X63.122 Y57.183
G1 F1800 X165.816 Y159.876 E266.18765
G1 X165.877 Y159.937
G0 F4320 X165.816 Y159.381
G1 F1800 X63.617 Y57.183 E279.84578
G1 X63.556 Y57.122
G0 F4320 X64.112 Y57.183
G1 F1800 X165.816 Y158.886 E293.43776
G1 X165.877 Y158.947
G0 F4320 X165.816 Y158.391
G1 F1800 X64.607 Y57.183 E306.96359
G1 X64.546 Y57.122
G0 F4320 X65.102 Y57.183
G1 F1800 X165.816 Y157.896 E320.42326
G1 X165.877 Y157.957
G0 F4320 X165.816 Y157.401
G1 F1800 X65.597 Y57.183 E333.81678
G1 X65.536 Y57.122
G0 F4320 X66.092 Y57.183
G1 F1800 X165.816 Y156.906 E347.14414
G1 X165.877 Y156.967
G0 F4320 X165.816 Y156.412
G1 F1800 X66.587 Y57.183 E360.40542
G1 X66.526 Y57.122
G0 F4320 X67.082 Y57.183
G1 F1800 X165.816 Y155.917 E373.60055
G1 X165.877 Y155.978
G0 F4320 X165.816 Y155.422
G1 F1800 X67.577 Y57.183 E386.72952
G1 X67.516 Y57.122
G0 F4320 X68.072 Y57.183
G1 F1800 X165.816 Y154.927 E399.79234
G1 X165.877 Y154.988
G0 F4320 X165.816 Y154.432
G1 F1800 X68.567 Y57.183 E412.78901
G1 X68.506 Y57.122
G0 F4320 X69.062 Y57.183
G1 F1800 X165.816 Y153.937 E425.71952
G1 X165.877 Y153.998
G0 F4320 X165.816 Y153.442
G1 F1800 X69.557 Y57.183 E438.58388
G1 X69.496 Y57.122
G0 F4320 X70.052 Y57.183
G1 F1800 X165.816 Y152.947 E451.38208
G1 X165.877 Y153.008
G0 F4320 X165.816 Y152.452
G1 F1800 X70.547 Y57.183 E464.11414
G1 X70.486 Y57.122
G0 F4320 X71.042 Y57.183
G1 F1800 X165.816 Y151.957 E476.78004
G1 X165.877 Y152.018
G0 F4320 X165.816 Y151.462
G1 F1800 X71.537 Y57.183 E489.37978
G1 X71.476 Y57.122
G0 F4320 X72.032 Y57.183
G1 F1800 X165.816 Y150.967 E501.91337
G1 X165.877 Y151.028
G0 F4320 X165.816 Y150.472
G1 F1800 X72.527 Y57.183 E514.38081
G1 X72.466 Y57.122
G0 F4320 X73.022 Y57.183
G1 F1800 X165.816 Y149.977 E526.7821
G1 X165.877 Y150.038
G0 F4320 X165.816 Y149.482
G1 F1800 X73.517 Y57.183 E539.11723
G1 X73.456 Y57.122
G0 F4320 X74.012 Y57.183
G1 F1800 X165.816 Y148.987 E551.38621
G1 X165.877 Y149.048
G0 F4320 X165.816 Y148.492
G1 F1800 X74.507 Y57.183 E563.58903
G1 X74.446 Y57.122
G0 F4320 X75.002 Y57.183
G1 F1800 X165.816 Y147.997 E575.72571
G1 X165.877 Y148.058
G0 F4320 X165.816 Y147.502
G1 F1800 X75.497 Y57.183 E587.79622
G1 X75.436 Y57.122
G0 F4320 X75.992 Y57.183
G1 F1800 X165.816 Y147.007 E599.80059
G1 X165.877 Y147.068
G0 F4320 X165.816 Y146.512
G1 F1800 X76.487 Y57.183 E611.7388
G1 X76.426 Y57.122
G0 F4320 X76.982 Y57.183
G1 F1800 X165.816 Y146.017 E623.61086
G1 X165.877 Y146.078
G0 F4320 X165.816 Y145.522
G1 F1800 X77.476 Y57.183 E635.41683
G1 X77.415 Y57.122
G0 F4320 X77.971 Y57.183
G1 F1800 X165.816 Y145.027 E647.15665
G1 X165.877 Y145.088
G0 F4320 X165.816 Y144.532
G1 F1800 X78.466 Y57.183 E658.83031
G1 X78.405 Y57.122
G0 F4320 X78.961 Y57.183
G1 F1800 X165.816 Y144.037 E670.43783
G1 X165.877 Y144.098
G0 F4320 X165.816 Y143.542
G1 F1800 X79.456 Y57.183 E681.97918
G1 X79.395 Y57.122
G0 F4320 X79.951 Y57.183
G1 F1800 X165.816 Y143.047 E693.45439
G1 X165.877 Y143.108
G0 F4320 X165.816 Y142.552
G1 F1800 X80.446 Y57.183 E704.86344
G1 X80.385 Y57.122
G0 F4320 X80.941 Y57.183
G1 F1800 X165.816 Y142.057 E716.20634
G1 X165.877 Y142.118
G0 F4320 X165.816 Y141.562
G1 F1800 X81.436 Y57.183 E727.48308
G1 X81.375 Y57.122
G0 F4320 X81.931 Y57.183
G1 F1800 X165.816 Y141.067 E738.69368
G1 X165.877 Y141.128
G0 F4320 X165.816 Y140.572
G1 F1800 X82.426 Y57.183 E749.83811
G1 X82.365 Y57.122
G0 F4320 X82.921 Y57.183
G1 F1800 X165.816 Y140.077 E760.9164
G1 X165.877 Y140.138
G0 F4320 X165.816 Y139.582
G1 F1800 X83.416 Y57.183 E771.92853
G1 X83.355 Y57.122
G0 F4320 X83.911 Y57.183
G1 F1800 X165.816 Y139.087 E782.87451
G1 X165.877 Y139.148
G0 F4320 X165.816 Y138.592
G1 F1800 X84.406 Y57.183 E793.75433
G1 X84.345 Y57.122
G0 F4320 X84.901 Y57.183
G1 F1800 X165.816 Y138.097 E804.568
G1 X165.877 Y138.158
G0 F4320 X165.816 Y137.602
G1 F1800 X85.396 Y57.183 E815.31552
G1 X85.335 Y57.122
G0 F4320 X85.891 Y57.183
G1 F1800 X165.816 Y137.108 E825.99695
G1 X165.877 Y137.169
G0 F4320 X165.816 Y136.613
G1 F1800 X86.386 Y57.183 E836.61223
G1 X86.325 Y57.122
G0 F4320 X86.881 Y57.183
G1 F1800 X165.816 Y136.118 E847.16136
G1 X165.877 Y136.179
G0 F4320 X165.816 Y135.623
G1 F1800 X87.376 Y57.183 E857.64433
G1 X87.315 Y57.122
G0 F4320 X87.871 Y57.183
G1 F1800 X165.816 Y135.128 E868.06114
G1 X165.877 Y135.189
G0 F4320 X165.816 Y134.633
G1 F1800 X88.366 Y57.183 E878.41181
G1 X88.305 Y57.122
G0 F4320 X88.861 Y57.183
G1 F1800 X165.816 Y134.138 E888.69632
G1 X165.877 Y134.199
G0 F4320 X165.816 Y133.643
G1 F1800 X89.356 Y57.183 E898.91468
G1 X89.295 Y57.122
G0 F4320 X89.851 Y57.183
G1 F1800 X165.816 Y133.148 E909.06688
G1 X165.877 Y133.209
G0 F4320 X165.816 Y132.653
G1 F1800 X90.346 Y57.183 E919.15293
G1 X90.285 Y57.122
G0 F4320 X90.841 Y57.183
G1 F1800 X165.816 Y132.158 E929.17283
G1 X165.877 Y132.219
G0 F4320 X165.816 Y131.663
G1 F1800 X91.336 Y57.183 E939.12657
G1 X91.275 Y57.122
G0 F4320 X91.831 Y57.183
G1 F1800 X165.816 Y131.168 E949.01416
G1 X165.877 Y131.229
G0 F4320 X165.816 Y130.673
G1 F1800 X92.326 Y57.183 E958.8356
G1 X92.265 Y57.122
G0 F4320 X92.821 Y57.183
G1 F1800 X165.816 Y130.178 E968.59089
G1 X165.877 Y130.239
G0 F4320 X165.816 Y129.683
G1 F1800 X93.316 Y57.183 E978.28002
G1 X93.255 Y57.122
G0 F4320 X93.811 Y57.183
G1 F1800 X165.816 Y129.188 E987.90299
G1 X165.877 Y129.249
G0 F4320 X165.816 Y128.693
G1 F1800 X94.306 Y57.183 E997.45982
G1 X94.245 Y57.122
G0 F4320 X94.801 Y57.183
G1 F1800 X165.816 Y128.198 E1006.95049
G1 X165.877 Y128.259
G0 F4320 X165.816 Y127.703
G1 F1800 X95.296 Y57.183 E1016.37501
G1 X95.235 Y57.122
G0 F4320 X95.791 Y57.183
G1 F1800 X165.816 Y127.208 E1025.73337
G1 X165.877 Y127.269
G0 F4320 X165.816 Y126.713
G1 F1800 X96.286 Y57.183 E1035.02558
G1 X96.225 Y57.122
G0 F4320 X96.78 Y57.183
G1 F1800 X165.816 Y126.218 E1044.2517
G1 X165.877 Y126.279
G0 F4320 X165.816 Y125.723
G1 F1800 X97.275 Y57.183 E1053.41167
G1 X97.214 Y57.122
G0 F4320 X97.77 Y57.183
G1 F1800 X165.816 Y125.228 E1062.50549
G1 X165.877 Y125.289
G0 F4320 X165.816 Y124.733
G1 F1800 X98.265 Y57.183 E1071.53316
G1 X98.204 Y57.122
G0 F4320 X98.76 Y57.183
G1 F1800 X165.816 Y124.238 E1080.49467
G1 X165.877 Y124.299
G0 F4320 X165.816 Y123.743
G1 F1800 X99.255 Y57.183 E1089.39002
G1 X99.194 Y57.122
G0 F4320 X99.75 Y57.183
G1 F1800 X165.816 Y123.248 E1098.21923
G1 X165.877 Y123.309
G0 F4320 X165.816 Y122.753
G1 F1800 X100.245 Y57.183 E1106.98228
G1 X100.184 Y57.122
G0 F4320 X100.74 Y57.183
G1 F1800 X165.816 Y122.258 E1115.67917
G1 X165.877 Y122.319
G0 F4320 X165.816 Y121.763
G1 F1800 X101.235 Y57.183 E1124.30992
G1 X101.174 Y57.122
G0 F4320 X101.73 Y57.183
G1 F1800 X165.816 Y121.268 E1132.87451
G1 X165.877 Y121.329
G0 F4320 X165.816 Y120.773
G1 F1800 X102.225 Y57.183 E1141.37294
G1 X102.164 Y57.122
G0 F4320 X102.72 Y57.183
G1 F1800 X165.816 Y120.278 E1149.80523
G1 X165.877 Y120.339
G0 F4320 X165.816 Y119.783
G1 F1800 X103.215 Y57.183 E1158.17136
G1 X103.154 Y57.122
G0 F4320 X103.71 Y57.183
G1 F1800 X165.816 Y119.288 E1166.47133
G1 X165.877 Y119.349
G0 F4320 X165.816 Y118.793
G1 F1800 X104.205 Y57.183 E1174.70516
G1 X104.144 Y57.122
G0 F4320 X104.7 Y57.183
G1 F1800 X165.816 Y118.298 E1182.87283
G1 X165.877 Y118.359
G0 F4320 X165.816 Y117.803
G1 F1800 X105.195 Y57.183 E1190.97434
G1 X105.134 Y57.122
G0 F4320 X105.69 Y57.183
G1 F1800 X165.816 Y117.309 E1199.00977
G1 X165.877 Y117.37
G0 F4320 X165.816 Y116.814
G1 F1800 X106.185 Y57.183 E1206.97905
G1 X106.124 Y57.122
G0 F4320 X106.68 Y57.183
G1 F1800 X165.816 Y116.319 E1214.88217
G1 X165.877 Y116.38
G0 F4320 X165.816 Y115.824
G1 F1800 X107.175 Y57.183 E1222.71914
G1 X107.114 Y57.122
G0 F4320 X107.67 Y57.183
G1 F1800 X165.816 Y115.329 E1230.48996
G1 X165.877 Y115.39
G0 F4320 X165.816 Y114.834
G1 F1800 X108.165 Y57.183 E1238.19462
G1 X108.104 Y57.122
G0 F4320 X108.66 Y57.183
G1 F1800 X165.816 Y114.339 E1245.83313
G1 X165.877 Y114.4
G0 F4320 X165.816 Y113.844
G1 F1800 X109.155 Y57.183 E1253.40549
G1 X109.094 Y57.122
G0 F4320 X109.65 Y57.183
G1 F1800 X165.816 Y113.349 E1260.91169
G1 X165.877 Y113.41
G0 F4320 X165.816 Y112.854
G1 F1800 X110.145 Y57.183 E1268.35174
G1 X110.084 Y57.122
G0 F4320 X110.64 Y57.183
G1 F1800 X165.816 Y112.359 E1275.72564
G1 X165.877 Y112.42
G0 F4320 X165.816 Y111.864
G1 F1800 X111.135 Y57.183 E1283.03338
G1 X111.074 Y57.122
G0 F4320 X111.63 Y57.183
G1 F1800 X165.816 Y111.369 E1290.27497
G1 X165.877 Y111.43
G0 F4320 X165.816 Y110.874
G1 F1800 X112.125 Y57.183 E1297.45041
G1 X112.064 Y57.122
G0 F4320 X112.62 Y57.183
G1 F1800 X165.816 Y110.379 E1304.55969
G1 X165.877 Y110.44
G0 F4320 X165.816 Y109.884
G1 F1800 X113.115 Y57.183 E1311.60282
G1 X113.054 Y57.122
G0 F4320 X113.61 Y57.183
G1 F1800 X165.816 Y109.389 E1318.57979
G1 X165.877 Y109.45
G0 F4320 X165.816 Y108.894
G1 F1800 X114.105 Y57.183 E1325.49062
G1 X114.044 Y57.122
G0 F4320 X114.6 Y57.183
G1 F1800 X165.816 Y108.399 E1332.33529
G1 X165.877 Y108.46
G0 F4320 X165.816 Y107.904
G1 F1800 X115.095 Y57.183 E1339.1138
G1 X115.034 Y57.122
G0 F4320 X115.59 Y57.183
G1 F1800 X165.816 Y107.409 E1345.82616
G1 X165.877 Y107.47
G0 F4320 X165.816 Y106.914
G1 F1800 X116.085 Y57.183 E1352.47237
G1 X116.024 Y57.122
G0 F4320 X116.579 Y57.183
G1 F1800 X165.816 Y106.419 E1359.0525
G1 X165.877 Y106.48
G0 F4320 X165.816 Y105.924
G1 F1800 X117.074 Y57.183 E1365.56646
G1 X117.013 Y57.122
G0 F4320 X117.569 Y57.183
G1 F1800 X165.816 Y105.429 E1372.01428
G1 X165.877 Y105.49
G0 F4320 X165.816 Y104.934
G1 F1800 X118.064 Y57.183 E1378.39594
G1 X118.003 Y57.122
G0 F4320 X118.559 Y57.183
G1 F1800 X165.816 Y104.439 E1384.71145
G1 X165.877 Y104.5
G0 F4320 X165.816 Y103.944
G1 F1800 X119.054 Y57.183 E1390.96081
G1 X118.993 Y57.122
G0 F4320 X119.549 Y57.183
G1 F1800 X165.816 Y103.449 E1397.14401
G1 X165.877 Y103.51
G0 F4320 X165.816 Y102.954
G1 F1800 X120.044 Y57.183 E1403.26106
G1 X119.983 Y57.122
G0 F4320 X120.539 Y57.183
G1 F1800 X165.816 Y102.459 E1409.31195
G1 X165.877 Y102.52
G0 F4320 X165.816 Y101.964
G1 F1800 X121.034 Y57.183 E1415.2967
G1 X120.973 Y57.122
G0 F4320 X121.529 Y57.183
G1 F1800 X165.816 Y101.469 E1421.21528
G1 X165.877 Y101.53
G0 F4320 X165.816 Y100.974
G1 F1800 X122.024 Y57.183 E1427.06772
G1 X121.963 Y57.122
G0 F4320 X122.519 Y57.183
G1 F1800 X165.816 Y100.479 E1432.854
G1 X165.877 Y100.54
G0 F4320 X165.816 Y99.984
G1 F1800 X123.014 Y57.183 E1438.57413
G1 X122.953 Y57.122
G0 F4320 X123.509 Y57.183
G1 F1800 X165.816 Y99.489 E1444.22811
G1 X165.877 Y99.55
G0 F4320 X165.816 Y98.994
G1 F1800 X124.004 Y57.183 E1449.81593
G1 X123.943 Y57.122
G0 F4320 X124.499 Y57.183
G1 F1800 X165.816 Y98.499 E1455.3376
G1 X165.877 Y98.56
G0 F4320 X165.816 Y98.004
G1 F1800 X124.994 Y57.183 E1460.79311
G1 X124.933 Y57.122
G0 F4320 X125.489 Y57.183
G1 F1800 X165.816 Y97.51 E1466.18254
G1 X165.877 Y97.571
G0 F4320 X165.816 Y97.015
G1 F1800 X125.984 Y57.183 E1471.50582
G1 X125.923 Y57.122
G0 F4320 X126.479 Y57.183
G1 F1800 X165.816 Y96.52 E1476.76294
G1 X165.877 Y96.581
G0 F4320 X165.816 Y96.025
G1 F1800 X126.974 Y57.183 E1481.95391
G1 X126.913 Y57.122
G0 F4320 X127.469 Y57.183
G1 F1800 X165.816 Y95.53 E1487.07872
G1 X165.877 Y95.591
G0 F4320 X165.816 Y95.035
G1 F1800 X127.964 Y57.183 E1492.13738
G1 X127.903 Y57.122
G0 F4320 X128.459 Y57.183
G1 F1800 X165.816 Y94.54 E1497.12989
G1 X165.877 Y94.601
G0 F4320 X165.816 Y94.045
G1 F1800 X128.954 Y57.183 E1502.05625
G1 X128.893 Y57.122
G0 F4320 X129.449 Y57.183
G1 F1800 X165.816 Y93.55 E1506.91645
G1 X165.877 Y93.611
G0 F4320 X165.816 Y93.055
G1 F1800 X129.944 Y57.183 E1511.7105
G1 X129.883 Y57.122
G0 F4320 X130.439 Y57.183
G1 F1800 X165.816 Y92.56 E1516.43839
G1 X165.877 Y92.621
G0 F4320 X165.816 Y92.065
G1 F1800 X130.934 Y57.183 E1521.10013
G1 X130.873 Y57.122
G0 F4320 X131.429 Y57.183
G1 F1800 X165.816 Y91.57 E1525.69572
G1 X165.877 Y91.631
G0 F4320 X165.816 Y91.075
G1 F1800 X131.924 Y57.183 E1530.22515
G1 X131.863 Y57.122
G0 F4320 X132.419 Y57.183
G1 F1800 X165.816 Y90.58 E1534.68844
G1 X165.877 Y90.641
G0 F4320 X165.816 Y90.085
G1 F1800 X132.914 Y57.183 E1539.08556
G1 X132.853 Y57.122
G0 F4320 X133.409 Y57.183
G1 F1800 X165.816 Y89.59 E1543.41654
G1 X165.877 Y89.651
G0 F4320 X165.816 Y89.095
G1 F1800 X133.904 Y57.183 E1547.68136
G1 X133.843 Y57.122
G0 F4320 X134.399 Y57.183
G1 F1800 X165.816 Y88.6 E1551.88003
G1 X165.877 Y88.661
G0 F4320 X165.816 Y88.105
G1 F1800 X134.894 Y57.183 E1556.01254
G1 X134.833 Y57.122
G0 F4320 X135.389 Y57.183
G1 F1800 X165.816 Y87.61 E1560.0789
G1 X165.877 Y87.671
G0 F4320 X165.816 Y87.115
G1 F1800 X135.884 Y57.183 E1564.07911
G1 X135.823 Y57.122
G0 F4320 X136.378 Y57.183
G1 F1800 X165.816 Y86.62 E1568.01323
G1 X165.877 Y86.681
G0 F4320 X165.816 Y86.125
G1 F1800 X136.873 Y57.183 E1571.8812
G1 X136.812 Y57.122
G0 F4320 X137.368 Y57.183
G1 F1800 X165.816 Y85.63 E1575.68301
G1 X165.877 Y85.691
G0 F4320 X165.816 Y85.135
G1 F1800 X137.863 Y57.183 E1579.41868
G1 X137.802 Y57.122
G0 F4320 X138.358 Y57.183
G1 F1800 X165.816 Y84.64 E1583.08818
G1 X165.877 Y84.701
G0 F4320 X165.816 Y84.145
G1 F1800 X138.853 Y57.183 E1586.69154
G1 X138.792 Y57.122
G0 F4320 X139.348 Y57.183
G1 F1800 X165.816 Y83.65 E1590.22874
G1 X165.877 Y83.711
G0 F4320 X165.816 Y83.155
G1 F1800 X139.843 Y57.183 E1593.69979
G1 X139.782 Y57.122
G0 F4320 X140.338 Y57.183
G1 F1800 X165.816 Y82.66 E1597.10468
G1 X165.877 Y82.721
G0 F4320 X165.816 Y82.165
G1 F1800 X140.833 Y57.183 E1600.44342
G1 X140.772 Y57.122
G0 F4320 X141.328 Y57.183
G1 F1800 X165.816 Y81.67 E1603.71601
G1 X165.877 Y81.731
G0 F4320 X165.816 Y81.175
G1 F1800 X141.823 Y57.183 E1606.92244
G1 X141.762 Y57.122
G0 F4320 X142.318 Y57.183
G1 F1800 X165.816 Y80.68 E1610.06272
G1 X165.877 Y80.741
G0 F4320 X165.816 Y80.185
G1 F1800 X142.813 Y57.183 E1613.13685
G1 X142.752 Y57.122
G0 F4320 X143.308 Y57.183
G1 F1800 X165.816 Y79.69 E1616.14482
G1 X165.877 Y79.751
G0 F4320 X165.816 Y79.195
G1 F1800 X143.803 Y57.183 E1619.08664
G1 X143.742 Y57.122
G0 F4320 X144.298 Y57.183
G1 F1800 X165.816 Y78.7 E1621.96231
G1 X165.877 Y78.761
G0 F4320 X165.816 Y78.206
G1 F1800 X144.793 Y57.183 E1624.77189
G1 X144.732 Y57.122
G0 F4320 X145.288 Y57.183
G1 F1800 X165.816 Y77.711 E1627.51532
G1 X165.877 Y77.772
G0 F4320 X165.816 Y77.216
G1 F1800 X145.783 Y57.183 E1630.19259
G1 X145.722 Y57.122
G0 F4320 X146.278 Y57.183
G1 F1800 X165.816 Y76.721 E1632.80371
G1 X165.877 Y76.782
G0 F4320 X165.816 Y76.226
G1 F1800 X146.773 Y57.183 E1635.34868
G1 X146.712 Y57.122
G0 F4320 X147.268 Y57.183
G1 F1800 X165.816 Y75.731 E1637.82749
G1 X165.877 Y75.792
G0 F4320 X165.816 Y75.236
G1 F1800 X147.763 Y57.183 E1640.24015
G1 X147.702 Y57.122
G0 F4320 X148.258 Y57.183
G1 F1800 X165.816 Y74.741 E1642.58666
G1 X165.877 Y74.802
G0 F4320 X165.816 Y74.246
